Newaita-dark/.DP/32/youtube-indicator-light-sync2.svg

<svg xmlns="http://www.w3.org/2000/svg" xmlns:xlink="http://www.w3.org/1999/xlink" width="32px" height="32px" viewBox="0 0 32 32" version="1.1">
<g id="surface1">
<path style=" stroke:none;fill-rule:nonzero;fill:rgb(93.333334%,93.333334%,93.333334%);fill-opacity:1;" d="M 21.628906 20.039062 C 21.425781 20.097656 21.242188 20.230469 21.128906 20.425781 C 21.097656 20.476562 21.074219 20.527344 21.058594 20.582031 C 20.527344 21.574219 20.363281 22.765625 20.675781 23.9375 C 20.988281 25.109375 21.730469 26.054688 22.6875 26.652344 C 22.726562 26.691406 22.773438 26.722656 22.824219 26.753906 C 23.21875 26.980469 23.722656 26.847656 23.953125 26.449219 C 24.183594 26.050781 24.046875 25.550781 23.648438 25.320312 C 23.601562 25.292969 23.550781 25.269531 23.503906 25.253906 C 22.910156 24.863281 22.453125 24.261719 22.253906 23.515625 C 22.050781 22.765625 22.144531 22.015625 22.464844 21.386719 C 22.5 21.347656 22.53125 21.300781 22.558594 21.253906 C 22.789062 20.855469 22.652344 20.351562 22.257812 20.121094 C 22.058594 20.011719 21.832031 19.984375 21.628906 20.039062 Z M 21.628906 20.039062 "/>
<path style=" stroke:none;fill-rule:nonzero;fill:rgb(93.333334%,93.333334%,93.333334%);fill-opacity:1;" d="M 28.644531 25.441406 C 28.847656 25.386719 29.035156 25.253906 29.148438 25.058594 C 29.175781 25.007812 29.199219 24.957031 29.214844 24.902344 C 29.746094 23.90625 29.914062 22.714844 29.601562 21.546875 C 29.285156 20.375 28.542969 19.425781 27.589844 18.828125 C 27.546875 18.792969 27.503906 18.761719 27.453125 18.730469 C 27.058594 18.503906 26.550781 18.636719 26.324219 19.035156 C 26.09375 19.429688 26.230469 19.933594 26.625 20.164062 C 26.675781 20.191406 26.722656 20.214844 26.773438 20.230469 C 27.367188 20.617188 27.824219 21.21875 28.023438 21.96875 C 28.222656 22.71875 28.128906 23.464844 27.808594 24.097656 C 27.777344 24.136719 27.742188 24.183594 27.714844 24.230469 C 27.488281 24.628906 27.621094 25.128906 28.019531 25.359375 C 28.214844 25.472656 28.441406 25.496094 28.644531 25.441406 Z M 28.644531 25.441406 "/>
<path style=" stroke:none;fill-rule:nonzero;fill:rgb(93.333334%,93.333334%,93.333334%);fill-opacity:1;" d="M 15.839844 5.816406 C 15.839844 5.816406 7.175781 5.816406 5.011719 6.386719 C 3.847656 6.707031 2.890625 7.664062 2.570312 8.847656 C 2 11.015625 2 15.507812 2 15.507812 C 2 15.507812 2 20.019531 2.570312 22.164062 C 2.890625 23.347656 3.824219 24.285156 5.011719 24.605469 C 7.199219 25.195312 15.839844 25.195312 15.839844 25.195312 C 15.839844 25.195312 17.984375 25.195312 20.410156 25.125 C 20.050781 24.410156 19.847656 23.601562 19.847656 22.742188 C 19.847656 19.808594 22.207031 17.449219 25.136719 17.449219 C 26.945312 17.449219 28.535156 18.347656 29.488281 19.722656 C 29.675781 17.679688 29.675781 15.527344 29.675781 15.527344 C 29.675781 15.527344 29.699219 11.015625 29.105469 8.847656 C 28.789062 7.664062 27.855469 6.730469 26.667969 6.410156 C 24.503906 5.816406 15.839844 5.816406 15.839844 5.816406 Z M 13.195312 10.441406 C 13.207031 10.441406 13.21875 10.441406 13.230469 10.441406 C 13.339844 10.441406 13.449219 10.472656 13.546875 10.53125 L 20.917969 14.886719 C 21.351562 15.144531 21.351562 15.777344 20.917969 16.035156 L 13.546875 20.386719 C 13.101562 20.652344 12.542969 20.332031 12.542969 19.816406 L 12.542969 11.105469 C 12.542969 10.738281 12.832031 10.445312 13.195312 10.441406 Z M 13.195312 10.441406 "/>
</g>
</svg>

<svg xmlns="http://www.w3.org/2000/svg" width="32" height="32"><g fill="#bdbdbd"><path d="M21.629 20.04a.818.818 0 0 0-.5.386.664.664 0 0 0-.07.152 4.6 4.6 0 0 0-.383 3.36 4.587 4.587 0 0 0 2.012 2.714c.039.04.085.07.136.098a.825.825 0 1 0 .676-1.496 2.98 2.98 0 0 1-1.246-1.738c-.203-.75-.11-1.5.21-2.13a.823.823 0 0 0-.207-1.262.818.818 0 0 0-.628-.085zm0 0M28.645 25.441a.834.834 0 0 0 .503-.382.783.783 0 0 0 .067-.157 4.59 4.59 0 0 0 .387-3.355 4.623 4.623 0 0 0-2.012-2.719.825.825 0 0 0-1.266.207.825.825 0 0 0 .45 1.195 2.985 2.985 0 0 1 1.25 1.739c.199.75.105 1.5-.215 2.129a.826.826 0 0 0 .836 1.344zm0 0"/><path d="M15.84 5.816s-8.664 0-10.832.57A3.545 3.545 0 0 0 2.57 8.853C2 11.016 2 15.508 2 15.508s0 4.512.57 6.656a3.466 3.466 0 0 0 2.438 2.438c2.191.593 10.832.593 10.832.593s2.144 0 4.57-.07a5.24 5.24 0 0 1-.566-2.383 5.282 5.282 0 0 1 5.293-5.293c1.808 0 3.398.899 4.351 2.27.188-2.04.188-4.188.188-4.188s.023-4.515-.57-6.68a3.465 3.465 0 0 0-2.438-2.44C24.5 5.815 15.84 5.815 15.84 5.815zm-2.645 4.622h.035c.114.003.22.039.317.093l7.367 4.356a.667.667 0 0 1 0 1.148l-7.367 4.352a.663.663 0 0 1-1.004-.575v-8.707a.67.67 0 0 1 .652-.668zm0 0"/></g></svg>
